X: 86
T:Minuet,A. JaW.086
M:3/4
Q:1/4=90
C:"A Good Tune"
S:James Winder Ms, Lancashire, 1835-41
R:Minuet
O:England
A:Wyresdale,Lancashire
H:1/8
Z:vmp.Chris Partington, Aug 2004
K:D
fga2G2|FGA2G2|FGAGFE|F2EFD2|!
fga2G2|FGA2G2|FGAGFE|D6:|!
|:d2D2D2|E6|e2E2E2|F6|!
fga2f2|efgfed|e2A2c2|d6:|]
